X: 20149
T: Joan Martin's
R: polka
M: 2/4
K: Gmajor
|:D|GB BG|FA- AD|GA Bc|de/d/ cA|
GB- BG|FA AB|c/B/A FA|G2 G:|
|:B/c/|dg ga|bg gf/e/|dg- gb|ab/a/ g/f/e|
dg- ga|bg ge|dB c/B/A|G2- G:|

